X: 4602
T:Tamerack'er Down
M:4/4
L:1/8
C:Donald Angus Beaton
S:Donald Angus Beaton: C.B. Scottish Violin Music
R:reel
O:Cape Breton, Nova Scotia
Z:posted by Toby Rider 10/97
K:A
f| ecBc AFEF| A2 af ecce| =g2 fa ecBc| AFEF A2 Af| ecBc A2 A:|!
f| eAce =g2 fa| eAce fBBa|1 ecce f2 af| ecBc A/2A/2A A:|2 ecce fgaf| ecB
c
A/2A/2A A||
